Sources/FrostedUI/Resources/Icons.xcassets/eyeSlashed12.imageset/eye-slashed-12.svg

<svg width="12" height="12" viewBox="0 0 12 12" fill="none" xmlns="http://www.w3.org/2000/svg" data-fui-icon="true">
  <path
    d="M9.71997 1.21973C10.0129 0.926952 10.4877 0.926873 10.7805 1.21973C11.0733 1.51259 11.0733 1.98741 10.7805 2.28027L7.84106 5.21875C7.94307 5.45882 8.00024 5.72271 8.00024 6C8.00024 7.10449 7.1047 7.99987 6.00024 8C5.723 8 5.45903 7.94279 5.21899 7.84082L2.28052 10.7803C1.98766 11.0731 1.51287 11.073 1.21997 10.7803C0.927077 10.4874 0.927078 10.0126 1.21997 9.71973L4.15845 6.78027C4.05672 6.54047 4.00024 6.2769 4.00024 6C4.00024 4.89543 4.89567 4 6.00024 4C6.2771 4.00003 6.54075 4.05647 6.78052 4.1582L9.71997 1.21973ZM10.2737 4.23145C10.6271 4.01565 11.089 4.12705 11.3049 4.48047C11.6182 4.99331 11.8145 5.41565 11.8987 5.6084C12.0051 5.85218 12.0111 6.13416 11.8997 6.38965C11.7513 6.7295 11.2246 7.85127 10.2864 8.89941C9.34836 9.94724 7.92461 10.9999 6.00024 11C5.73274 11 5.4729 10.979 5.22192 10.9404C4.81282 10.8773 4.53224 10.4951 4.59497 10.0859C4.65797 9.67656 5.04106 9.39502 5.45044 9.45801C5.62652 9.48508 5.80979 9.5 6.00024 9.5C7.33175 9.49991 8.38109 8.77857 9.16821 7.89941C9.81198 7.18026 10.2289 6.40623 10.425 6C10.3369 5.8174 10.2052 5.55721 10.0247 5.26172C9.80898 4.90832 9.92039 4.44736 10.2737 4.23145ZM6.00024 1C6.26775 1.00001 6.52759 1.02096 6.77856 1.05957C7.18753 1.12278 7.46821 1.505 7.40552 1.91406C7.34254 2.32338 6.95936 2.60484 6.55005 2.54199C6.37397 2.51491 6.1907 2.50001 6.00024 2.5C4.66869 2.5 3.61943 3.22143 2.83228 4.10059C2.18872 4.81948 1.77071 5.59263 1.57446 5.99902C1.66261 6.1817 1.79492 6.44216 1.97583 6.73828C2.19139 7.09161 2.07993 7.55262 1.72681 7.76855C1.37337 7.98447 0.911525 7.87292 0.695557 7.51953C0.382299 7.00672 0.186037 6.5844 0.101807 6.3916C-0.00469434 6.14777 -0.0106778 5.86589 0.10083 5.61035C0.249207 5.27038 0.775926 4.14867 1.71411 3.10059C2.65217 2.05276 4.07583 1 6.00024 1Z"
    fill="currentColor"
  />
</svg>

<svg xmlns="http://www.w3.org/2000/svg" width="12" height="12" fill="none" data-fui-icon="true" viewBox="0 0 12 12"><path fill="currentColor" d="M9.72 1.22a.75.75 0 0 1 1.06 1.06L7.842 5.22A2 2 0 0 1 5.22 7.84l-2.938 2.94A.75.75 0 0 1 1.22 9.72l2.938-2.94A2 2 0 0 1 6.78 4.158zm.554 3.011a.75.75 0 0 1 1.03.25c.314.512.51.935.595 1.127a.98.98 0 0 1 0 .782 9.9 9.9 0 0 1-1.613 2.51C9.348 9.946 7.925 11 6 11q-.401 0-.778-.06a.75.75 0 1 1 .228-1.482q.265.041.55.042c1.332 0 2.381-.721 3.168-1.6A8.4 8.4 0 0 0 10.425 6a8 8 0 0 0-.4-.738.75.75 0 0 1 .249-1.03M6 1q.402 0 .779.06a.75.75 0 0 1-.229 1.482A3.6 3.6 0 0 0 6 2.5c-1.331 0-2.38.721-3.168 1.6A8.4 8.4 0 0 0 1.574 6c.089.183.22.443.402.74a.75.75 0 0 1-1.28.78 10 10 0 0 1-.594-1.127A.97.97 0 0 1 .1 5.61 9.9 9.9 0 0 1 1.714 3.1C2.652 2.054 4.076 1 6 1"/></svg>
